X:1
T:James Gibb editions
T:Le rossignol - Janequin
T:#
%%score [ 1 2 3 4 ]
L:1/8
Q:1/4=200
M:none
K:F
V:1 treble nm="Soprano" snm="S"
V:2 treble nm="Alto" snm="A"
V:3 treble-8 nm="Tenor" snm="T"
V:4 bass nm="Bass" snm="B"
V:1
"^Clément Janequin\n(1485-1558)""^Le Rosssignol" G8 G4 G4 | B6 c2 d4 (c4- | c2 B2) B8 A4 | B8 z8 | %4
w: En es- cou-|tant le chant mé\-|* * lo- di-|eulx|
 z4 d4 c4 B4 | A4 d4 c2 d2 e2 c2 | f6 _e2 d4 c4- | c4 B8 A4 | B2 d2 d2 d2 d4 z4 | %9
w: De ses plai-|sans et tant doulx ros- si-|gneulx Qui vont di\-|* sant ain-|sy, ain- sy, ain- sy,|
 z4 z2 f2 _e2 e2 eeee | f2 f2 f2 f2 f4 d4- | d4 c4 B8 | A2 A2 A2 A2 A2 B2 c4- | c4 B4 B4 A4 | B16 | %15
w: ain- sy, ain- sy, ain- sy, ain-|sy, ain- sy, ain- sy, L'ung|* d'eux me|dist: par- cy, par- cy, par- cy,|* pas- sez, par-|cy,|
 z4 B4 A4 G4 | (c6 B2 A2 G2 F2) B2 | A4 G4 G4 ^F4 | G4 B4 A4 G4 | (c6 B2 A2 G2 F2) B2 | %20
w: Et vous au-|rez * * * * qui|chan- te- ra le|mieulx, et vous au-|rez * * * * qui|
 A4 G4 G4 ^F4 | G16 || z16 | z16 | z8 f8 | f8 f8 | e6 e2 f4 f4 | e4 (d8 ^c4) | d8 z4 g4 | %29
w: chan- te- ra le|mieulx.|||Tous,|tous, tous,|tous veul- liez es-|tre son\- *|gneulx D'a-|
 g4 g4 (f2 _e2 d2 c2 | B2) B2 B2 B2 A4 G4 | F8 z4 e4 | (e2 d2 e2 f2 g2 e2 f4) | e4 d8 ^c4 | %34
w: mour ser- vir * * *|* loy- aul- ment en tous|lieux Et|luy * * * * * *|cri- er mer-|
 d2 B2 B2 B2 A2 G2 B2 B2 | AGAB c2 c2 B4 B4 | A16 || c4 c2 c2 c2 c2 d4- | d4 d4 d2 d2 d2 d2 | %39
w: cy, mer- cy, mer- cy, mer- cy, mer-|cy, mer- cy, mer- cy, En es- cou-|tant.|Fuy- ez, fuy- ez, fuy- ez,|* fuy- ez, fuy- ez, fuy-|
 d4 f4 e2 d2 c2 B2 | A4 d4 d4 ^c4 | d16 | c4 c2 c2 c2 c2 d4- | d4 d4 d2 d2 d2 d2 | %44
w: ez, fuy- ez, fuy- ez gens|me- ren- co- li-|eulx.|Suy- vez, suy- vez, suy- vez,|* suy- vez, suy- vez, suy-|
 d4 f4 e2 d2 c2 B2 | A4 d4 d4 ^c4 | d8 z4 d4 | d8 c8 | B2 B2 B2 B2 B2 B2 B2 B2 | B4 B4 c6 B2 | %50
w: vez, suy- vez, suy- vez les|da- mes en tous|lieux. Et|de sou-|cy dic- tes fy fy fy fy fy|fy Re- tour- nez|
 A4 G4 F4 F2 F2 | F2 F4 F2 F2 F2 F4 | F2 F2 F2 FF G4 A4 | B6 A2 B4 (A4- | A2 G2) G8 ^F4 | %55
w: cy mar- di, mar- di|mar- di, mar- di, mar- di,|mar- di, mar- di. Et vous se-|rez plus- que de\-|* * vant joy-|
 G4 F4 G4 A4 | B6 A2 B4 A4- | A2 G2 G8 ^F4 | G4 B4 B4 B4 | A16 |] %60
w: eulx, et vous se-|rez plus- que de\-|* * vant joy-|eulx, En es- cou-|tant.|
V:2
 D8 D4 D4 | G4 G4 A6 G2 | F4 E4 F8 | z4 B4 A4 G4 | F4 F4 _E4 D4 | F4 G8 (A2 G2 | F2 E2 F8) A4 | %7
w: En es- cou-|tant le chant mé-|lo- di- eulx|De ses plai-|sans et tant doulx|ros- si- gneulx *|* * * Qui|
 G4 _E4 F4 F2 F2 | F2 F2 F2 FF F4 z2 G2 | G2 G2 F2 D2 G2 G2 G2 G2 | F4 D4 F8 | _E8 D2 D2 D2 D2 | %12
w: vont di- sant ain- sy,|ain- sy, ain- sy, ain- sy, ain-|sy, ain- sy, ain- sy, ain- sy, ain-|sy, L'ung d'eux|me dist: par- cy, par-|
 D6 E2 F4 G4 | F4 E4 F4 F4 | F2 G2 G2 G2 G2 G2 G2 G2 | F4 D4 D4 D4 | (E2 F2 G2 E2 F6) F2 | %17
w: cy, pas- sez, pas-|sez, par- cy, par-|cy, par- cy, par- cy, par- cy, par-|cy, Et vous au-|rez * * * * qui|
 _E4 C4 D4 D4 | B,4 D4 D4 D4 | (E2 F2 G2 E2 F6) F2 | _E4 C4 D4 D4 | D16 || z8 A8 | z4 A8 z4 | %24
w: chan- te- ra le|mieulx, et vous au-|rez * * * * qui|chan- te- ra le|mieulx.|Tous,|tous,|
 A8 A6 A2 | B4 B4 A4 F4 | c8 A6 A2 | B4 G4 A4 A4 | F8 z8 | z8 z4 F4 | F4 F4 F4 D4 | %31
w: tous, tous, veul-|liez es- tre son-|gneulx, tous veul-|liez es- tre son-|gneulx|loy-|aul- ment en tous|
 (D2 E2 F2 G2 A4) z4 | z4 c4 c6 c2 | B4 G4 A2 A2 A2 A2 | F2 D2 G2 G2 F2 D2 G2 G2 | F4 _E4 D4 G4 | %36
w: lieux * * * *|Et luy cri-|er mer- cy, mer- cy, mer-|cy, mer- cy, mer- cy, mer- cy, mer-|cy, En es- cou-|
 ^F16 || A4 A2 A2 A4 z4 | F4 F2 F2 F2 F2 F4 | z8 E4 E2 E2 | F6 G2 A4 A4 | A4 A4 A2 A2 A4 | %42
w: tant.|Fuy- ez, fuy- ez,|fuy- ez, fuy- ez, fuy- ez,|fuy- ez, fuy-|ez, gens me- ren-|co- li- eulx, Suy- vez,|
 A4 A2 A2 A4 z4 | F4 F2 F2 F2 F2 F4 | z8 E4 E2 E2 | F6 G2 A4 A4 | F8 z4 B4 | B8 A8 | %48
w: suy- vez, suy- vez,|suy- vez, suy- vez, suy- vez,|suy- vez les|da- mes en tous|lieux. Et|de sou-|
 G2 G2 G2 G2 G2 G2 G2 G2 | G4 G4 G6 F2 | F2 F2 D2 D2 D6 D2 | D2 D2 D4 D2 D2 D2 D2- | %52
w: cy dic- tes fy fy fy fy fy|fy Re- tour- nez|cy mar- di, mar- di, mar-|di, mar- di, mar- di, mar- di,|
 D2 D2 D2 D2 D4 F4 | F12 F4 | D4 _E4 D4 D4 | D4 D4 D4 F4 | F12 F4 | D4 _E4 D8- | D4 D4 G4 G4 | %59
w: * mar- di, mar- di. Et|vous se-|rez plus- que de-|vant joy- eulx, plus-|que de-|vant joy- eulx,|* En es- cou-|
 ^F16 |] %60
w: tant.|
V:3
 G8 (G2 A2 B2) c2 | d4 d4 f6 _e2 | (d4 c2 B2 c4) c4 | B4 B4 c4 c4 | d8 g4 g2 g2 | %5
w: En es\- * * cou-|tant le chant mé-|lo\- * * * di-|eulx, De ses plai-|sans et tant doulx|
 (f4 e2 d2 e4) e4 | d8 f8 | (_e2 d2 c2 B2 c4) c4 | B4 B2 B2 B2 BB B2 G2 | B6 B2 c4 c4 | %10
w: ros\- * * * si-|gneulx Qui|vont * * * * di-|sant ain- sy, ain- sy, ain- sy, ain-|sy, ain- sy, ain-|
 (d6 c2 d2 _e2 f2 d2 | g6) g2 g4 g4 | f12 e4 | d4 (c2 B2) c2 c2 c2 c2 | B6 A2 (G2 A2 B2 c2 | %15
w: sy, * * * * *|* L'ung d'eux me|dist, l'ung|d'eux me * dist: pas- sez, par-|cy, par- cy, * * *|
 d8) z4 B4 | A4 G4 d6 d2 | (c2 B2 A2) G2 A4 A4 | G8 z4 B4 | A4 G4 d6 d2 | (c2 B2 A2) G2 A4 A4 | %21
w: * Et|vous au- rez qui|chan\- * * te- ra le|mieulx, et|vous au- rez qui|chan\- * * te- ra le|
 G16 || c8 z4 c4- | c4 z4 c8 | z4 c8 z4 | d6 e2 f4 d4 | g4 g4 f4 a4 | g2 f2 e2 d2 e4 e4 | %28
w: mieulx.|Tous, tous.|* tous,|tous,|tous veul- liez es-|tre son- gneulx, tous|veul- liez es- tre son- gneulx|
 d4 d4 B4 (B4 | G2 A2 B2 c2 d6) d2 | d4 d4 c4 B4 | A8 z4 g4 | g12 a4 | (g2 f2 e2 d2 e4) e4 | %34
w: D'a- mour ser- vir|* * * * * loy-|aul- ment en tous|lieux Et|luy cri-|er * * * * mer-|
 d4 d2 d2 d2 B2 d2 d2 | d2 dd (G6 A2 B2) c2 | d16 || z4 f4 f2 f2 f2 f2 | f4 B4 B2 B2 B4 | %39
w: cy, mer- cy, mer- cy, mer- cy,|mer- cy, En es\- * * cou-|tant.|Fuy- ez, fuy- ez, fuy-|ez, fuy- ez, fuy- ez,|
 f4 f2 d2 g4 g4 | f6 (ed) e4 e4 | d8 f4 f2 f2 | f4 f4 f2 f2 f2 f2 | f4 B4 B2 B2 B4 | %44
w: fuy- ez, fuy- ez, gens|me- ren\- * co- li-|eulx, Suy- vez, suy-|vez, suy- vez, suy- vez, suy-|vez, suy- vez, suy- vez,|
 f4 f2 d2 g4 g4 | (f4 e2 d2 e4) e4 | d8 z4 f4 | f8 f8 | d2 d2 d2 d2 d2 d2 d2 d2 | d4 d4 _e6 d2 | %50
w: suy- vez les da- mes|en * * * tous|lieux. Et|de sou-|cy dic- tes fy fy fy fy fy|fy Re- tour- nez|
 c4 B4 A2 A2 A2 A2 | A4 A2 A2 A2 A4 A2 | A2 A2 A2 A2 B4 c4 | d12 c4 | B4 c4 A4 A4 | G4 A4 B4 c4 | %56
w: cy mar- di, mar- di, mar-|di, mar- di, mar- di, mar-|di, mar- di. Et vous se-|rez plus-|que de- vant joy-|eulx, et vous se-|
 d12 c4 | B4 c4 A4 A4 | G4 G4 (G2 A2 B2) c2 | d16 |] %60
w: rez plus-|que de- vant joy-|eulx, En es\- * * cou-|tant.|
V:4
 G,8 G,4 G,4 | (G,6 F,_E, D,4) A,4 | B,4 G,4 F,4 F,4 | B,,4 G,4 F,4 _E,4 | D,4 B,4 C4 G,4 | %5
w: En es- cou-|tant * * * le|chant mé- lo- di-|eulx, De ses plai-|sans et tant doulx|
 (D6 CB, A,4) A,4 | B,12 F,4 | G,8 F,8 | B,,8 z4 _E,2 E,2 | _E,2 E,E, B,,4 z8 | %10
w: ros\- * * * si-|gneulx Qui|vont di-|sant, ain- sy,|ain- sy, ain- sy,|
 z4 B,2 B,2 B,2 B,2 B,2 B,B, | C4 C,4 G,4 G,4 | D,6 C,2 D,4 E,4 | F,4 G,4 F,4 F,4 | %14
w: ain- sy, ain- sy, ain- sy, ain-|sy, L'ung d'eux me|dist, l'ung d'eux me|dist: pas- sez, par-|
 B,,2 _E,2 E,2 E,2 E,2 E,2 E,2 E,2 | B,,6 B,,2 F,4 G,4 | C,8 z4 B,,4 | C,4 _E,4 D,4 D,4 | %18
w: cy, par- cy, par- cy, par- cy, par-|cy, Et vous au-|rez, qui|chan- te- ra le|
 G,6 G,2 F,4 G,4 | C,8 z4 B,,4 | C,4 _E,4 D,4 D,4 | G,16 || z4 F,8 z4 | F,8 z4 F,4- | %24
w: mieulx, et vous au-|rez qui|chan- te- ra le|mieulx.|Tous,|tous, tous,|
 F,4 z4 F,6 F,2 | B,4 B,4 D4 D4 | C8 F,6 F,2 | G,4 B,4 A,4 A,4 | D,8 z4 _E,4 | _E,4 E,4 B,,6 B,,2 | %30
w: * tous veul-|liez es- tre son-|gneulx, tous veul-|liez es- tre son-|gneulx, D'a-|mour ser- vir loy-|
 B,,4 B,,4 F,4 G,4 | D,8 z4 C4 | C12 F,4 | G,4 B,4 A,4 A,4 | D,2 G,2 G,2 G,2 D,2 G,2 G,G,G,G, | %35
w: aul- ment en tous|lieux Et|luy, et|luy cri- er mer-|cy, mer- cy, mer- cy, mer- cy, mer- cy, mer-|
 D,4 C,4 G,4 G,4 | D,16 || z8 F,4 B,2 B,2 | B,4 z4 z4 B,4 | B,2 B,2 D4 C8 | D4 B,4 A,4 A,4 | D,16 | %42
w: cy, En es- cou-|tant.|Fuy- ez, fuy-|ez, fuy-|ez, fuy- ez, gens|me- ren- co- li-|eulx,|
 z8 F,4 B,2 B,2 | B,4 z4 z4 B,4 | B,2 B,2 D4 C8 | D4 B,4 A,4 A,4 | D,8 z4 B,4 | B,8 F,8 | %48
w: Suy- vez, suy-|vez, suy-|vez, suy- vez les|da- mes en tous|lieux. Et|de sou-|
 G,8 G,2 G,2 G,2 G,2 | G,2 G,2 G,2 G,2 C,6 D,2 | F,4 G,4 D,4 D,2 D,2 | D,2 D,4 D,2 D,2 D,2 D,4 | %52
w: cy dic- tes fy fy|fy fy fy Re- tou- nez|cy mar- di, mar- di,|mar- di, mar- di, mar- di,|
 D,2 D,2 D,2 D,D, G,4 F,4 | (B,,6 C,2 D,2 E,2 F,2) F,2 | G,4 C,4 D,4 D,4 | G,4 D,4 G,4 F,4 | %56
w: mar- di, mar- di. Et vous se-|rez * * * * plus-|que de- vant joy-|eulx, et vous se-|
 (B,,6 C,2 D,2 E,2 F,2) F,2 | G,4 C,4 D,4 D,4 | G,6 G,2 G,4 G,4 | D,16 |] %60
w: rez * * * * plus-|que de- vant joy-|eulx, En es- cou-|tant.|

